X:11
T:Merrily dance the Quakers. Pn1801.11
Q:3/8=120
M:6/8
L:1/8
C:"451""p186"
W:1st Gent:follows his Partner round the 2d Cu: .| the Lady follow her partner back again :|
W:lead down the middle & Allemande :||:
B:Preston 24 for 1801
Z:Village Music Project, John Adams, 2017
K:G
(GAB)D2B|c2B "^tr"A2G|(GAB)D2D | E3G3:|
dcB edc|dcB ABc|dcB efg|"^tr"B3d3|
dcB gfe|dcB A2A| GAB D2D|E3G3|]
